yin-yang.svg

<svg fill="currentColor" viewBox="0 0 24 24"><path d="M12 2a10 10 0 0 1 10 10 10 10 0 0 1-10 10A10 10 0 0 1 2 12 10 10 0 0 1 12 2m0 2a8 8 0 0 0-8 8 8 8 0 0 0 8 8 4 4 0 0 1-4-4 4 4 0 0 1 4-4 4 4 0 0 0 4-4 4 4 0 0 0-4-4m0 2.5A1.5 1.5 0 0 1 13.5 8 1.5 1.5 0 0 1 12 9.5 1.5 1.5 0 0 1 10.5 8 1.5 1.5 0 0 1 12 6.5m0 8a1.5 1.5 0 0 0-1.5 1.5 1.5 1.5 0 0 0 1.5 1.5 1.5 1.5 0 0 0 1.5-1.5 1.5 1.5 0 0 0-1.5-1.5"/></svg>

<svg  viewBox="0 0 24 24" fill="currentColor"><path  d="M12,2A10,10 0 0,1 22,12A10,10 0 0,1 12,22A10,10 0 0,1 2,12A10,10 0 0,1 12,2M12,4A8,8 0 0,0 4,12A8,8 0 0,0 12,20A4,4 0 0,1 8,16A4,4 0 0,1 12,12A4,4 0 0,0 16,8A4,4 0 0,0 12,4M12,6.5A1.5,1.5 0 0,1 13.5,8A1.5,1.5 0 0,1 12,9.5A1.5,1.5 0 0,1 10.5,8A1.5,1.5 0 0,1 12,6.5M12,14.5A1.5,1.5 0 0,0 10.5,16A1.5,1.5 0 0,0 12,17.5A1.5,1.5 0 0,0 13.5,16A1.5,1.5 0 0,0 12,14.5Z"/></svg>
